X:7
T:Rid\'ee
R:rid\'ee
O:Bretagne
D:Skolvan: Swing & Tears
Z:id:hn-ridee-7
M:6/4
L:1/8
Q:1/4=200
K:G
GddB dd ABcd cB | GddB dd ABcd cB |
GdcB dd ABcd cB | GdcB d2 ABcd cB ||
G2FG Bc BGFG AF | G2FG BG cdcB GF |
G2FG Bc BGFG AA | G2FG BG cdcB G2 ||

